common/resources/fonts/svg/paragraph-left.svg

<?xml version="1.0" encoding="UTF-8" standalone="no"?>
<svg width="1024px" height="1024px" viewBox="0 0 1024 1024" version="1.1" xmlns="http://www.w3.org/2000/svg" xmlns:xlink="http://www.w3.org/1999/xlink">
    <!-- Generator: Sketch 3.7.1 (28215) - http://www.bohemiancoding.com/sketch -->
    <title>paragraph-left</title>
    <desc>Created with Sketch.</desc>
    <defs></defs>
    <g id="Page-1" stroke="none" stroke-width="1" fill="none" fill-rule="evenodd">
        <g id="paragraph-left" fill="#000000">
            <path d="M65,120.9375 L960,120.9375 L960,232.8125 L65,232.8125 L65,120.9375 Z M65,344.6875 L624.375,344.6875 L624.375,456.5625 L65,456.5625 L65,344.6875 Z M65,792.1875 L624.375,792.1875 L624.375,904.0625 L65,904.0625 L65,792.1875 Z M65,568.4375 L960,568.4375 L960,680.3125 L65,680.3125 L65,568.4375 Z" id="Shape"></path>
        </g>
    </g>
</svg>

<svg width="1024" height="1024" viewBox="0 0 1024 1024">
    <path d="M65 120.938h895v111.874H65V120.938zm0 223.75h559.375v111.875H65V344.688zm0 447.5h559.375v111.875H65V792.188zm0-223.75h895v111.875H65V568.438z" fill-rule="evenodd"/>
</svg>
